X:1
T:Title
%%score ( 1 2 ) ( 3 4 )
L:1/8
Q:1/4=97
M:4/4
K:D
V:1 treble nm="Grand Piano, Soprano"
V:2 treble 
V:3 bass nm="Choir Pad, Prayer, Sweet Prayer"
V:4 bass 
V:1
 DE [DF]2 [DE][DF][CG][CG]- | [CG][CG] [CG]2 [Gc][GB] [FA]2 | D[CE] [DF]2 [DF][DF] [DF]2 | %3
 [B,E][B,D] [CE]6 | .A2 z2 z4 | z8 | cd [FA]2 [DF][A,D] [A,C]2 | [A,D][A,E] [A,D]6 |[M:6/8] [DF]6 | %9
 [FA]6 | [FA]2 [FB] [DF]2 [DG] | [CE]6 | [EG]6 | [GB]6 | [Ac]2 [Ae] [EG]2 [GB] | [FA]6 | [DF]6 | %17
 [FA]6 | [Fd]2 [FA] [DF]2 [Ad] | [Ac]3 [GB]3 | [Ge]2 [Gd] [Gc]2 [GB] | [FA]2 [DF] [EG]2 [FA] | %22
 [GB]3 [Gc]3 | [Fd]6- | [Fd]3 z3 |] %25
V:2
 x8 | x8 | x8 | x8 | C-[CG] [DF]2 [DF][DF][FA][FA]- | [FA][FA] [FA]2 [=F^G][^FA] [GB]2 | E2 z2 z4 | %7
 x8 |[M:6/8] x6 | x6 | x6 | x6 | x6 | x6 | x6 | x6 | x6 | x6 | x6 | x6 | x6 | x6 | x6 | x6 | x6 |] %25
V:3
 F,G, [D,A,]2 [D,G,][D,A,][E,A,][E,A,]- | [E,A,][E,A,] [A,,A,]2 [A,,A,][A,,A,] [D,A,]2 | %2
w: By~Samuel~Monroe~Vansant * * * * * *||
 A,-[E,A,] [D,A,]2 [D,A,][D,A,] [E,^G,]2 | [E,^G,][E,G,] [A,,A,]6 | %4
w: ||
 A,,-[A,,A,] [D,A,]2 [D,A,][D,A,][D,D][D,D]- | [D,D][D,D] [D,D]2 [D,D][D,D] [G,D]2 | %6
w: ||
 [^G,D]2 [A,D]2 [A,,A,][A,,F,] [A,,E,]2 | [A,,F,][A,,G,] [D,F,]6 |[M:6/8] [D,A,]2 [D,A,] [D,A,]3 | %9
w: |||
 [D,D]2 [D,D] [D,D]3 | [D,D]2 [D,D] [D,A,]2 [D,A,] | [A,,A,]2 [A,,A,] [A,,A,]3 | %12
w: |||
 [A,,A,]2 [A,,A,] [A,,A,]3 | [A,,A,]2 [A,,A,] [A,,A,]3 | A,2 [A,C] [A,C]2 [A,C] | %15
w: |||
 [D,D]2 [D,D] [D,D]3 | [D,A,]2 [D,A,] [D,A,]3 | [D,D]2 [D,D] [D,D]3 | %18
w: |||
 [D,A,]2 [D,D] [D,A,]2 [F,A,] | [G,D]2 [G,D] [G,D]3 | [G,B,]2 [G,B,] [G,E]2 [G,D] | %21
w: |||
 [A,D]2 A, A,2 A, | [A,,A,]3 [A,,A,]3 | [D,A,]6- | [D,A,]3 z3 |] %25
w: ||||
V:4
 D,2 z2 z4 | x8 | .F,2 z2 z4 | x8 | .E,2 z2 z4 | x8 | x8 | x8 |[M:6/8] x6 | x6 | x6 | x6 | x6 | %13
 x6 | x6 | x6 | x6 | x6 | x6 | x6 | x6 | x6 | x6 | x6 | x6 |] %25

